X:109
T: Der Mann ins Heu
N: A0471
O: Europa, Mitteleuropa, Deutschland
N: Gassenhawerlin 1535 No. 13.
R: Romanze, Ballade, Lied
M: 6/4
L: 1/8
K: F
A2 | A4A2A4A2 | A4A2A4A2 | A4A2A4F2 |
G3AB2A3GF2 | G3AB2A3GF2 | G6G2z2
G2 | G4G2A4A2 | B4B2A4
A2 | G4F2F4E2 | F6F2z2
F2 | D4D2E4E2 | F4F2F4
F2 | D4D2E4E2 | F6F4

@@@ Tune index: 422
